packages/webapp/src/assets/images/navbar/small_logo.svg

<?xml version="1.0" encoding="UTF-8" standalone="no"?>
<svg
   width="115"
   height="20"
   viewBox="0 0 115 20"
   fill="none"
   version="1.1"
   id="svg24018"
   sodipodi:docname="small_logo.svg"
   inkscape:version="1.2.2 (732a01da63, 2022-12-09)"
   xmlns:inkscape="http://www.inkscape.org/namespaces/inkscape"
   xmlns:sodipodi="http://sodipodi.sourceforge.net/DTD/sodipodi-0.dtd"
   xmlns="http://www.w3.org/2000/svg"
   xmlns:svg="http://www.w3.org/2000/svg">
  <defs
     id="defs24022" />
  <sodipodi:namedview
     id="namedview24020"
     pagecolor="#ffffff"
     bordercolor="#000000"
     borderopacity="0.25"
     inkscape:showpageshadow="2"
     inkscape:pageopacity="0.0"
     inkscape:pagecheckerboard="0"
     inkscape:deskcolor="#d1d1d1"
     showgrid="false"
     inkscape:zoom="13.121739"
     inkscape:cx="57.538105"
     inkscape:cy="9.9834327"
     inkscape:window-width="1920"
     inkscape:window-height="974"
     inkscape:window-x="-11"
     inkscape:window-y="-11"
     inkscape:window-maximized="1"
     inkscape:current-layer="svg24018" />
  <g
     id="g5554"
     transform="matrix(0.34458225,0,0,0.3288213,60.954864,12.885892)">
    <path
       d="M 28.6172,16 V 4.57812 h 0.7969 V 15.25 h 5.4453 V 16 Z"
       fill="#028577"
       id="path5137" />
    <path
       d="M 38.8359,16 V 4.57812 h 0.7969 V 16 Z"
       fill="#028577"
       id="path5139" />
    <path
       d="M 47.8438,16 H 47.0391 V 5.32812 h -3.711 v -0.75 h 8.2266 v 0.75 h -3.7109 z"
       fill="#028577"
       id="path5141" />
    <path
       d="M 61.5,16 H 55.2578 V 4.57812 H 61.5 V 5.3125 h -5.4453 v 4.32031 h 5.1406 v 0.73439 h -5.1406 v 4.8984 H 61.5 Z"
       fill="#028577"
       id="path5143" />
    <path
       d="M 68.2891,16 H 65.9062 V 4.57812 h 6.5469 V 6.5625 h -4.164 v 2.94531 h 3.875 v 1.97659 h -3.875 z"
       fill="#028577"
       id="path5145" />
    <path
       d="M 83.6797,16 82.8516,13.2812 H 78.6875 L 77.8594,16 H 75.25 L 79.2812,4.53125 h 2.961 L 86.2891,16 Z M 82.2734,11.25 C 81.5078,8.78646 81.0755,7.39323 80.9766,7.07031 80.8828,6.7474 80.8151,6.49219 80.7734,6.30469 80.6016,6.97135 80.1094,8.61979 79.2969,11.25 Z"
       fill="#028577"
       id="path5147" />
    <path
       d="m 92.1562,9.64844 h 0.7813 c 0.7656,0 1.3307,-0.12761 1.6953,-0.38282 0.3646,-0.2552 0.5469,-0.65624 0.5469,-1.20312 0,-0.54167 -0.1875,-0.92708 -0.5625,-1.15625 C 94.2474,6.67708 93.6719,6.5625 92.8906,6.5625 h -0.7344 z m 0,1.96876 V 16 H 89.7344 V 4.57812 h 3.3281 c 1.5521,0 2.7005,0.28386 3.4453,0.85157 0.7448,0.5625 1.1172,1.41927 1.1172,2.57031 0,0.67188 -0.1849,1.27083 -0.5547,1.79688 C 96.7005,10.3177 96.1771,10.7266 95.5,11.0234 97.2188,13.5911 98.3385,15.25 98.8594,16 h -2.6875 l -2.7266,-4.3828 z"
       fill="#028577"
       id="path5149" />
    <path
       d="m 107.133,16 -2.75,-8.96094 h -0.071 c 0.099,1.82292 0.149,3.03904 0.149,3.64844 V 16 h -2.164 V 4.57812 h 3.297 l 2.703,8.73438 h 0.047 l 2.867,-8.73438 h 3.297 V 16 h -2.258 v -5.4062 c 0,-0.2553 0.003,-0.5495 0.008,-0.88286 0.01,-0.33334 0.047,-1.21875 0.109,-2.65625 h -0.07 L 109.352,16 Z"
       fill="#028577"
       id="path5151" />
  </g>
  <text
     xml:space="preserve"
     style="font-size:12.1671px;fill:#458f83;fill-opacity:1;stroke-width:0.321902"
     x="13.707867"
     y="11.693992"
     id="text471"
     transform="scale(1.0417523,0.95992109)"><tspan
       sodipodi:role="line"
       id="tspan469"
       style="fill:#458f83;fill-opacity:1;stroke-width:0.321902"
       x="13.707867"
       y="11.693992">true wellth</tspan></text>
  <text
     xml:space="preserve"
     style="font-size:2.9671px;fill:#458f83;fill-opacity:1;stroke-width:0.0784999"
     x="54.454182"
     y="17.781916"
     id="text471-5"
     transform="scale(0.96026103,1.0413835)"><tspan
       sodipodi:role="line"
       id="tspan469-5"
       style="fill:#458f83;fill-opacity:1;stroke-width:0.0784999"
       x="54.454182"
       y="17.781916">Powered By </tspan></text>
  <text
     xml:space="preserve"
     style="fill:#49498a;fill-opacity:1;stroke-width:0.31748"
     x="4.4526758"
     y="13.46155"
     id="text7309"><tspan
       sodipodi:role="line"
       id="tspan7307"
       x="4.4526758"
       y="13.46155" /></text>
</svg>

<svg width="115" height="20" viewBox="0 0 115 20" fill="none" xmlns="http://www.w3.org/2000/svg">
<path d="M28.6172 16V4.57812H29.4141V15.25H34.8594V16H28.6172Z" fill="#028577"/>
<path d="M38.8359 16V4.57812H39.6328V16H38.8359Z" fill="#028577"/>
<path d="M47.8438 16H47.0391V5.32812H43.3281V4.57812H51.5547V5.32812H47.8438V16Z" fill="#028577"/>
<path d="M61.5 16H55.2578V4.57812H61.5V5.3125H56.0547V9.63281H61.1953V10.3672H56.0547V15.2656H61.5V16Z" fill="#028577"/>
<path d="M68.2891 16H65.9062V4.57812H72.4531V6.5625H68.2891V9.50781H72.1641V11.4844H68.2891V16Z" fill="#028577"/>
<path d="M83.6797 16L82.8516 13.2812H78.6875L77.8594 16H75.25L79.2812 4.53125H82.2422L86.2891 16H83.6797ZM82.2734 11.25C81.5078 8.78646 81.0755 7.39323 80.9766 7.07031C80.8828 6.7474 80.8151 6.49219 80.7734 6.30469C80.6016 6.97135 80.1094 8.61979 79.2969 11.25H82.2734Z" fill="#028577"/>
<path d="M92.1562 9.64844H92.9375C93.7031 9.64844 94.2682 9.52083 94.6328 9.26562C94.9974 9.01042 95.1797 8.60938 95.1797 8.0625C95.1797 7.52083 94.9922 7.13542 94.6172 6.90625C94.2474 6.67708 93.6719 6.5625 92.8906 6.5625H92.1562V9.64844ZM92.1562 11.6172V16H89.7344V4.57812H93.0625C94.6146 4.57812 95.763 4.86198 96.5078 5.42969C97.2526 5.99219 97.625 6.84896 97.625 8C97.625 8.67188 97.4401 9.27083 97.0703 9.79688C96.7005 10.3177 96.1771 10.7266 95.5 11.0234C97.2188 13.5911 98.3385 15.25 98.8594 16H96.1719L93.4453 11.6172H92.1562Z" fill="#028577"/>
<path d="M107.133 16L104.383 7.03906H104.312C104.411 8.86198 104.461 10.0781 104.461 10.6875V16H102.297V4.57812H105.594L108.297 13.3125H108.344L111.211 4.57812H114.508V16H112.25V10.5938C112.25 10.3385 112.253 10.0443 112.258 9.71094C112.268 9.3776 112.305 8.49219 112.367 7.05469H112.297L109.352 16H107.133Z" fill="#028577"/>
<rect width="20" height="20" fill="white"/>
<rect width="5.21739" height="2.31884" fill="#83CAA4"/>
<rect y="5.797" width="5.21739" height="3.76812" fill="#83CAA4"/>
<rect y="2.89844" width="2.31884" height="2.31884" fill="#83CAA4"/>
<rect x="5.79712" y="17.6812" width="2.6087" height="2.31884" fill="#83CAA4"/>
<rect x="5.79712" y="14.7827" width="2.6087" height="2.31884" fill="#FFB800"/>
<rect x="8.98547" y="17.6812" width="7.82609" height="2.31884" fill="#83CAA4"/>
<rect x="8.98547" y="14.7827" width="11.0145" height="2.31884" fill="#83CAA4"/>
<rect x="17.3914" y="17.6812" width="2.6087" height="2.31884" fill="#028577"/>
<rect x="2.89856" y="2.89844" width="2.31884" height="2.31884" fill="#028577"/>
<rect y="10.1449" width="5.21739" height="9.85507" fill="#028577"/>
<rect x="5.79712" width="14.2029" height="14.2029" fill="#028577"/>
</svg>
